build/assets/images/proyectos/logos/fichas/logo-lagun-aro.svg

<svg width="200" height="56" viewBox="0 0 200 56" fill="none" xmlns="http://www.w3.org/2000/svg">
<g clip-path="url(#clip0)">
<path d="M151.805 42.5684V42.7095H170.327L170.439 42.6248L170.411 42.5966L170.327 42.5684H151.805V42.5684ZM194.974 25.4589L195.172 25.3177H164.736L164.623 25.4025L164.652 25.4307L164.736 25.4589H194.974V25.4589Z" fill="white"/>
<path d="M200 0.670044L164.765 25.3178H164.736H151.805V34.3808V42.7096V55.6688L170.327 42.7096H200V25.3178H195.2L200 21.958V0.670044ZM167.644 34.889C167.503 35.623 167.673 37.9382 168.548 38.1076C168.858 38.164 169.113 38.1076 169.367 37.9664L170.129 37.5429L170.27 40.6203H165.386C165.555 39.3498 165.64 38.3052 165.724 37.3735L165.894 34.889C164.906 34.7478 163.833 34.3808 162.929 33.6749C162.139 33.0256 161.687 32.235 161.631 31.2751C161.518 29.5811 163.748 27.4636 166.628 27.4636H167.475C167.786 27.4918 168.096 27.52 168.435 27.6047C168.237 28.0282 167.983 28.5364 167.927 29.4117C167.616 29.327 167.362 29.2705 166.995 29.2705C164.906 29.2705 164.341 30.6822 164.341 31.2186C164.341 32.602 165.696 33.082 166.713 33.1667C167.447 33.2514 168.153 33.082 168.774 32.6585C169.225 32.3479 169.338 32.235 169.564 31.7268C170.101 32.0092 171.315 32.0938 172.19 31.7833C171.992 33.5338 169.621 34.8325 167.644 34.889Z" fill="white"/>
<path d="M2.08625 43.1279C0.760774 43.1279 0 42.3828 0 41.1907V25.2928H3.22349V40.4691H11.5763V43.1279" fill="white"/>
<path d="M21.9371 28.3594L18.8861 37.1828H24.886L21.9371 28.3594ZM26.7997 43.1278L25.5527 39.6141H18.1959L16.9489 43.1278H13.7097L19.6861 26.6653C20.0234 25.63 20.7606 25.1045 22.0077 25.1045C23.1763 25.1045 23.9449 25.6613 24.2821 26.6417L30.086 43.1278H26.7997Z" fill="white"/>
<path d="M31.6467 34.2653C31.6467 28.1712 35.2702 25.1987 40.18 25.1987C41.8035 25.1987 43.4427 25.5517 45.2622 26.085L46.6505 26.4928L46.172 29.1752L44.6662 28.7516C43.0191 28.2654 41.6231 27.9595 40.3996 27.9595C36.9722 27.9595 34.8624 29.9438 34.8624 34.2967C34.8624 38.7672 37.0898 40.8299 40.5094 40.8299C41.6388 40.8299 42.627 40.7044 43.7799 40.5005V36.4692H39.8662V34.0927H44.6897C45.9603 34.0927 46.776 34.8849 46.776 36.03V40.0848C46.776 41.5828 46.3681 42.2417 44.9956 42.626C43.4662 43.0338 41.7799 43.3005 40.2584 43.3005C35.2702 43.3005 31.6467 40.4221 31.6467 34.2653Z" fill="white"/>
<path d="M57.7324 43.4416C53.058 43.4416 50.5168 40.924 50.5168 36.6809V25.2928H53.7325V36.7751C53.7325 39.3476 55.0737 40.7515 57.7324 40.7515C60.4383 40.7515 61.7638 39.3476 61.7638 36.7751V25.2928H64.9716V36.6809C64.9716 40.9083 62.4304 43.4416 57.7324 43.4416Z" fill="white"/>
<path d="M71.803 43.1281H68.9795V27.1832C68.9795 25.8185 69.8187 25.1205 71.2069 25.1205C72.3598 25.1205 73.0343 25.7087 73.5128 26.4695L80.846 38.7674V25.293H83.693V41.2379C83.693 42.5791 82.8381 43.2771 81.4499 43.2771C80.3205 43.2771 79.646 42.6967 79.1911 41.9281L71.803 29.6381" fill="white"/>
<path d="M101.811 28.3594L98.7518 37.1828H104.752L101.811 28.3594ZM106.673 43.1278L105.426 39.6141H98.0695L96.8146 43.1278H93.5754L99.5518 26.6653C99.8812 25.63 100.626 25.1045 101.881 25.1045C103.05 25.1045 103.818 25.6613 104.148 26.6417L109.96 43.1278H106.673Z" fill="white"/>
<path d="M120.383 27.6928H115.92V33.9516H121.198L122.014 32.83C122.54 32.132 123.026 31.3006 123.026 30.4065C123.026 28.7987 122.281 27.6928 120.383 27.6928ZM123.567 43.1279L120.571 36.328H115.92V43.1279H112.736V27.2144C112.736 26.0615 113.504 25.2928 114.775 25.2928H120.791C124.1 25.2928 126.093 27.0418 126.093 30.3281C126.093 31.7241 125.496 32.9163 124.681 33.9202L123.465 35.4417L126.971 43.1279H123.567Z" fill="white"/>
<path d="M137.645 27.6379C134.359 27.6379 132.453 30.0144 132.453 34.2653C132.453 38.5319 134.477 40.9083 137.763 40.9083C141.041 40.9083 142.947 38.5476 142.947 34.2653C142.947 30.0144 140.932 27.6379 137.645 27.6379ZM137.645 43.324C132.594 43.324 129.206 40.0378 129.206 34.2653C129.206 28.4771 132.712 25.1674 137.763 25.1674C142.822 25.1674 146.186 28.4536 146.186 34.2653C146.186 40.1162 142.736 43.324 137.645 43.324Z" fill="white"/>
</g>
<defs>
<clipPath id="clip0">
<rect width="200" height="54.9987" fill="white" transform="translate(0 0.670044)"/>
</clipPath>
</defs>
</svg>

<svg width="200" height="56" fill="none" xmlns="http://www.w3.org/2000/svg"><g clip-path="url(#clip0)" fill="#fff"><path d="M151.805 42.568v.142h18.522l.112-.085-.028-.028-.084-.029h-18.522zm43.169-17.11l.198-.14h-30.436l-.113.084.029.029.084.028h30.238z"/><path d="M200 .67l-35.235 24.648h-12.96v30.351l18.522-12.96H200v-17.39h-4.8l4.8-3.36V.67zm-32.356 34.219c-.141.734.029 3.05.904 3.219.31.056.565 0 .819-.142l.762-.423.141 3.077h-4.884c.169-1.27.254-2.315.338-3.246l.17-2.485c-.988-.141-2.061-.508-2.965-1.214-.79-.65-1.242-1.44-1.298-2.4-.113-1.694 2.117-3.811 4.997-3.811h.847c.311.028.621.056.96.14-.198.424-.452.932-.508 1.808a3.228 3.228 0 00-.932-.142c-2.089 0-2.654 1.412-2.654 1.949 0 1.383 1.355 1.863 2.372 1.948a2.983 2.983 0 002.061-.509c.451-.31.564-.423.79-.931.537.282 1.751.367 2.626.056-.198 1.75-2.569 3.05-4.546 3.106zM2.086 43.128C.761 43.128 0 42.383 0 41.19V25.293h3.223v15.176h8.353v2.659M21.937 28.36l-3.05 8.823h5.999l-2.949-8.824zM26.8 43.127l-1.247-3.514h-7.357l-1.247 3.514h-3.24l5.977-16.463c.337-1.035 1.075-1.56 2.322-1.56 1.168 0 1.937.556 2.274 1.537l5.804 16.486H26.8zm4.847-8.862c0-6.094 3.623-9.066 8.533-9.066 1.623 0 3.263.353 5.082.886l1.389.408-.479 2.682-1.506-.423c-1.647-.487-3.043-.793-4.266-.793-3.428 0-5.538 1.985-5.538 6.338 0 4.47 2.228 6.533 5.647 6.533 1.13 0 2.118-.126 3.27-.33v-4.03h-3.913v-2.377h4.824c1.27 0 2.086.792 2.086 1.937v4.055c0 1.498-.408 2.157-1.78 2.541-1.53.408-3.216.675-4.738.675-4.988 0-8.611-2.879-8.611-9.036zm26.085 9.177c-4.674 0-7.215-2.518-7.215-6.761V25.293h3.215v11.482c0 2.573 1.342 3.977 4 3.977 2.706 0 4.032-1.404 4.032-3.977V25.293h3.208V36.68c0 4.227-2.542 6.76-7.24 6.76zm14.071-.314H68.98V27.183c0-1.364.839-2.063 2.227-2.063 1.153 0 1.827.589 2.306 1.35l7.333 12.297V25.293h2.847v15.945c0 1.341-.855 2.04-2.243 2.04-1.13 0-1.804-.581-2.259-1.35l-7.388-12.29m30.008-1.278l-3.06 8.823h6.001l-2.941-8.824zm4.862 14.768l-1.247-3.514H98.07l-1.255 3.514h-3.24l5.977-16.463c.33-1.035 1.074-1.56 2.329-1.56 1.169 0 1.937.556 2.267 1.537l5.812 16.486h-3.287zm13.71-15.435h-4.463v6.259h5.278l.816-1.122c.526-.698 1.012-1.53 1.012-2.423 0-1.608-.745-2.714-2.643-2.714zm3.184 15.435l-2.996-6.8h-4.651v6.8h-3.184V27.214c0-1.152.768-1.921 2.039-1.921h6.016c3.309 0 5.302 1.749 5.302 5.035 0 1.396-.597 2.588-1.412 3.592l-1.216 1.522 3.506 7.686h-3.404zm14.078-15.49c-3.286 0-5.192 2.376-5.192 6.627 0 4.267 2.024 6.643 5.31 6.643 3.278 0 5.184-2.36 5.184-6.643 0-4.25-2.015-6.627-5.302-6.627zm0 15.686c-5.051 0-8.439-3.286-8.439-9.059 0-5.788 3.506-9.098 8.557-9.098 5.059 0 8.423 3.287 8.423 9.098 0 5.851-3.45 9.059-8.541 9.059z"/></g><defs><clipPath id="clip0"><path fill="#fff" transform="translate(0 .67)" d="M0 0h200v54.999H0z"/></clipPath></defs></svg>
